icons/filled/arrow-big-down.svg

<svg xmlns="http://www.w3.org/2000/svg" width="24" height="24" viewBox="0 0 24 24" fill="currentColor"><path d="M10 2l-.15 .005a2 2 0 0 0 -1.85 1.995v6.999l-2.586 .001a2 2 0 0 0 -1.414 3.414l6.586 6.586a2 2 0 0 0 2.828 0l6.586 -6.586a2 2 0 0 0 .434 -2.18l-.068 -.145a2 2 0 0 0 -1.78 -1.089l-2.586 -.001v-6.999a2 2 0 0 0 -2 -2h-4z"/></svg>

<svg xmlns="http://www.w3.org/2000/svg" width="24" height="24" fill="currentColor"><path d="m10 2-.15.005A2 2 0 0 0 8 4v6.999L5.414 11A2 2 0 0 0 4 14.414L10.586 21a2 2 0 0 0 2.828 0L20 14.414a2 2 0 0 0 .434-2.18l-.068-.145A2 2 0 0 0 18.586 11L16 10.999V4a2 2 0 0 0-2-2z"/></svg>
